; generated by PrusaSlicer 2.9.3 on 2025-09-18 at 22:51:00 UTC


;
;
; Built by Cody Glen

; external perimeters extrusion width = 0.45mm
; perimeters extrusion width = 0.45mm
; infill extrusion width = 0.45mm
; solid infill extrusion width = 0.45mm
; top infill extrusion width = 0.40mm
; support material extrusion width = 0.35mm
; first layer extrusion width = 0.42mm

M73 P0 R73
M73 Q0 S73
M201 X1000 Y1000 Z200 E5000 ; sets maximum accelerations, mm/sec^2
M203 X200 Y200 Z12 E120 ; sets maximum feedrates, mm / sec
M204 S1250 T1250 ; sets acceleration (S) and retract acceleration (R), mm/sec^2
M205 X8.00 Y8.00 Z0.40 E4.50 ; sets the jerk limits, mm/sec
M205 S0 T0 ; sets the minimum extruding and travel feed rate, mm/sec

; printing object 1A Ring.stl id:0 copy 0
; stop printing object 1A Ring.stl id:0 copy 0

;TYPE:Custom
M862.3 P "MK3S" ; printer model check
M862.1 P0.4 ; nozzle diameter check
M115 U3.14.0 ; tell printer latest fw version
G90 ; use absolute coordinates
M83 ; extruder relative mode
M104 S210 ; set extruder temp
M140 S60 ; set bed temp
M190 S60 ; wait for bed temp
M109 S210 ; wait for extruder temp
G28 W ; home all without mesh bed level
G80 X107.46 Y87.4603 W35.0793 H35.0793 ; mesh bed levelling

G1 Z0.2 F720
G1 Y-3 F1000 ; go outside print area
G92 E0
G1 X60 E9 F1000 ; intro line
G1 X100 E12.5 F1000 ; intro line

G92 E0
M221 S95

; Don't change E values below. Excessive value can damage the printer.
M907 E430 ; set extruder motor current
G21 ; set units to millimeters
G90 ; use absolute coordinates
M83 ; use relative distances for extrusion

M900 K0.05 ; Filament gcode LA 1.5
M900 K30 ; Filament gcode LA 1.0




M107
;LAYER_CHANGE
;Z:0.2
;HEIGHT:0.2
G1 E-.8 F2100
M73 P0 R72
G1 Z.6 F720
G1 X108.4 Y93.168 F10800
G1 Z.2 F720
G1 E.8 F2100
M204 S800
;TYPE:Skirt/Brim
;WIDTH:0.42
G1 F600
G1 X113.168 Y88.4 E.21142
G1 X114.982 Y87.649 E.06156
G1 X135.018 Y87.649 E.62821
G1 X136.832 Y88.4 E.06156
G1 X141.6 Y93.168 E.21142
G1 X142.351 Y94.982 E.06156
G1 X142.351 Y115.018 E.62821
G1 X141.6 Y116.832 E.06156
G1 X136.832 Y121.6 E.21142
G1 X135.018 Y122.351 E.06156
G1 X114.982 Y122.351 E.62821
G1 X113.168 Y121.6 E.06156
G1 X108.4 Y116.832 E.21142
G1 X107.649 Y115.018 E.06156
G1 X107.649 Y94.982 E.62821
G1 X108.377 Y93.223 E.05969
M73 Q0 S72
M204 S1000
G1 X108.667 Y93.435 F10800
M204 S800
G1 F600
G1 X113.435 Y88.667 E.21142
G1 X114.982 Y88.026 E.0525
G1 X135.018 Y88.026 E.62821
G1 X136.565 Y88.667 E.0525
G1 X141.333 Y93.435 E.21142
G1 X141.974 Y94.982 E.0525
G1 X141.974 Y115.018 E.62821
G1 X141.333 Y116.565 E.0525
G1 X136.565 Y121.333 E.21142
G1 X135.018 Y121.974 E.0525
G1 X114.982 Y121.974 E.62821
G1 X113.435 Y121.333 E.0525
G1 X108.667 Y116.565 E.21142
G1 X108.026 Y115.018 E.0525
G1 X108.026 Y94.982 E.62821
G1 X108.644 Y93.49 E.05063
M204 S1000
;WIPE_START
G1 F8640
G1 X108.667 Y93.435 E-.01377
G1 X111.074 Y91.027 E-.78623
;WIPE_END
G1 Z.6 F720
G1 X115.736 Y98.34 F10800
G1 Z.2 F720
G1 E.8 F2100
M204 S800
G1 F600
G1 X116.329 Y97.473 E.03293
G1 X117.849 Y96.044 E.06541
G1 X119.887 Y94.832 E.07435
G1 X122.124 Y94.125 E.07356
G1 X123.832 Y93.884 E.05408
G1 X126.375 Y93.898 E.07974
G1 X127.642 Y94.072 E.0401
G1 X130.518 Y95.004 E.09479
G1 X132.247 Y96.102 E.06422
G1 X133.312 Y97.069 E.0451
G1 X134.245 Y98.194 E.04583
G1 X135.3 Y100.147 E.0696
G1 X135.892 Y102.345 E.07137
G1 X135.927 Y107.283 E.15483
G1 X135.426 Y109.452 E.0698
G1 X134.46 Y111.474 E.07026
G1 X132.098 Y114.016 E.1088
G1 X130.245 Y115.115 E.06755
G1 X128.211 Y115.809 E.06738
G1 X126.016 Y116.136 E.06958
G1 X124.973 Y116.164 E.03271
G1 X123.922 Y116.13 E.03297
G1 X121.677 Y115.772 E.07128
G1 X119.317 Y114.891 E.07898
G1 X117.381 Y113.573 E.07343
G1 X115.8 Y111.829 E.07381
G1 X114.614 Y109.556 E.08039
G1 X114.106 Y107.616 E.06288
G1 X114.027 Y103.174 E.1393
G1 X114.375 Y101.114 E.06551
G1 X115.169 Y99.169 E.06587
G1 X115.702 Y98.39 E.0296
M204 S1000
G1 X116.011 Y98.602 F10800
M204 S800
G1 F600
G1 X116.628 Y97.703 E.03419
G1 X118.091 Y96.334 E.06282
G1 X120.06 Y95.168 E.07175
G1 X122.222 Y94.49 E.07104
G1 X123.873 Y94.259 E.05227
G1 X125.4 Y94.223 E.04789
G1 X127.543 Y94.436 E.06752
G1 X130.337 Y95.335 E.09203
G1 X132.006 Y96.392 E.06194
G1 X133.048 Y97.339 E.04415
G1 X133.942 Y98.42 E.04398
G1 X134.957 Y100.306 E.06715
G1 X135.521 Y102.419 E.06857
G1 X135.549 Y107.262 E.15185
G1 X135.064 Y109.346 E.06709
G1 X134.132 Y111.285 E.06745
G1 X131.882 Y113.706 E.10363
G1 X130.104 Y114.765 E.06489
G1 X128.106 Y115.447 E.06619
G1 X125.995 Y115.76 E.06691
G1 X123.946 Y115.753 E.06425
G1 X121.79 Y115.412 E.06844
M73 Q1 S72
G1 X119.51 Y114.566 E.07625
M73 P1 R72
G1 X117.612 Y113.274 E.07199
G1 X116.096 Y111.594 E.07095
G1 X114.959 Y109.402 E.07742
G1 X114.476 Y107.543 E.06022
G1 X114.404 Y103.186 E.13663
G1 X114.743 Y101.198 E.06323
G1 X115.51 Y99.331 E.06329
G1 X115.977 Y98.651 E.02586
M204 S1000
G1 X116.287 Y98.863 F10800
M204 S800
G1 F600
G1 X116.901 Y97.965 E.03411
G1 X118.334 Y96.624 E.06154
G1 X120.232 Y95.504 E.0691
G1 X122.319 Y94.854 E.06854
G1 X123.914 Y94.634 E.05048
G1 X126.29 Y94.648 E.0745
G1 X127.444 Y94.801 E.0365
G1 X130.156 Y95.667 E.08926
G1 X131.765 Y96.682 E.05965
G1 X132.767 Y97.59 E.0424
G1 X133.64 Y98.646 E.04296
G1 X134.614 Y100.464 E.06467
G1 X135.15 Y102.492 E.06577
G1 X135.172 Y107.241 E.1489
G1 X134.702 Y109.239 E.06436
G1 X133.805 Y111.096 E.06466
G1 X131.666 Y113.396 E.09848
G1 X129.928 Y114.431 E.06342
G1 X128.001 Y115.084 E.06379
G1 X125.973 Y115.383 E.06427
G1 X123.97 Y115.377 E.0628
G1 X121.903 Y115.052 E.06561
G1 X119.702 Y114.241 E.07355
G1 X117.877 Y113.004 E.06913
G1 X116.393 Y111.36 E.06944
G1 X115.304 Y109.248 E.0745
G1 X114.847 Y107.471 E.05753
G1 X114.782 Y103.197 E.13402
G1 X115.1 Y101.322 E.05963
G1 X115.833 Y99.527 E.06079
G1 X116.253 Y98.913 E.02332
M204 S1000
G1 X116.561 Y99.125 F10800
M204 S800
G1 F600
G1 X117.2 Y98.195 E.03538
G1 X118.575 Y96.914 E.05892
G1 X120.404 Y95.84 E.0665
G1 X122.415 Y95.219 E.06599
G1 X123.954 Y95.009 E.0487
G1 X125.374 Y94.977 E.04453
G1 X127.378 Y95.172 E.06313
G1 X129.976 Y95.999 E.08549
G1 X131.524 Y96.973 E.05734
G1 X132.503 Y97.86 E.04142
G1 X133.337 Y98.871 E.04109
G1 X134.271 Y100.622 E.06222
G1 X134.78 Y102.564 E.06295
G1 X134.795 Y107.22 E.14599
G1 X134.34 Y109.131 E.06159
G1 X133.478 Y110.906 E.06187
G1 X131.45 Y113.086 E.09336
G1 X129.753 Y114.096 E.06192
G1 X127.897 Y114.721 E.0614
G1 X125.952 Y115.006 E.06164
G1 X123.994 Y115 E.06139
G1 X122.014 Y114.691 E.06283
G1 X119.895 Y113.916 E.07074
G1 X118.107 Y112.705 E.06771
G1 X116.69 Y111.127 E.0665
G1 X115.65 Y109.095 E.07157
G1 X115.218 Y107.4 E.05484
G1 X115.159 Y103.21 E.13139
G1 X115.468 Y101.406 E.05739
G1 X116.174 Y99.689 E.05821
G1 X116.527 Y99.174 E.01958
M204 S1000
G1 X116.836 Y99.387 F10800
M204 S800
G1 F600
G1 X117.498 Y98.427 E.03656
G1 X118.816 Y97.205 E.05635
G1 X120.575 Y96.177 E.06388
G1 X122.51 Y95.584 E.06346
G1 X123.994 Y95.384 E.04695
G1 X126.207 Y95.397 E.06939
G1 X127.281 Y95.537 E.03396
G1 X129.796 Y96.331 E.08269
G1 X131.284 Y97.264 E.05507
G1 X132.221 Y98.11 E.03958
G1 X133.034 Y99.096 E.04007
G1 X133.927 Y100.779 E.05974
G1 X134.409 Y102.635 E.06012
G1 X134.418 Y107.198 E.14307
G1 X133.978 Y109.022 E.05883
G1 X133.152 Y110.715 E.05906
G1 X131.234 Y112.776 E.08827
G1 X129.613 Y113.745 E.05921
G1 X127.793 Y114.358 E.06021
G1 X125.931 Y114.63 E.059
G1 X124.017 Y114.624 E.06001
G1 X122.126 Y114.33 E.06
G1 X120.086 Y113.59 E.06804
G1 X118.372 Y112.436 E.06479
G1 X116.987 Y110.893 E.06501
G1 X115.995 Y108.944 E.06857
G1 X115.589 Y107.33 E.05218
G1 X115.536 Y103.222 E.12881
M73 P1 R71
G1 X115.836 Y101.491 E.05508
G1 X116.514 Y99.852 E.05561
G1 X116.801 Y99.436 E.01585
M204 S1000
G1 X117.109 Y99.649 F10800
M204 S800
G1 F600
G1 X117.796 Y98.659 E.03778
G1 X119.056 Y97.496 E.05376
G1 X120.745 Y96.514 E.06126
G1 X122.605 Y95.95 E.06094
G1 X124.033 Y95.759 E.04517
G1 X125.35 Y95.731 E.0413
G1 X127.216 Y95.909 E.05877
G1 X129.617 Y96.664 E.07892
G1 X131.044 Y97.555 E.05275
G1 X131.958 Y98.381 E.03863
G1 X132.73 Y99.32 E.03811
G1 X133.583 Y100.935 E.05727
G1 X134.037 Y102.705 E.05729
G1 X134.041 Y107.175 E.14015
G1 X133.63 Y108.875 E.05484
G1 X132.825 Y110.524 E.05754
G1 X131.017 Y112.466 E.08319
G1 X129.437 Y113.411 E.05772
G1 X127.689 Y113.995 E.05779
G1 X125.909 Y114.253 E.05639
G1 X124.041 Y114.247 E.05857
G1 X122.236 Y113.969 E.05726
G1 X120.277 Y113.264 E.06528
G1 X118.603 Y112.136 E.06329
G1 X117.285 Y110.661 E.06202
G1 X116.342 Y108.793 E.06561
G1 X115.96 Y107.26 E.04954
G1 X115.914 Y103.236 E.12618
G1 X116.204 Y101.577 E.05281
G1 X116.854 Y100.016 E.05302
G1 X117.075 Y99.699 E.01212
M204 S1000
G1 X117.381 Y99.912 F10800
M204 S800
G1 F600
G1 X118.093 Y98.892 E.039
G1 X119.296 Y97.788 E.0512
G1 X120.915 Y96.852 E.05864
G1 X122.698 Y96.315 E.05839
G1 X124.072 Y96.134 E.04345
G1 X126.126 Y96.147 E.0644
G1 X127.12 Y96.274 E.03142
G1 X129.438 Y96.997 E.07613
G1 X130.804 Y97.847 E.05044
G1 X131.676 Y98.631 E.03677
G1 X132.426 Y99.545 E.03707
G1 X133.239 Y101.09 E.05474
G1 X133.666 Y102.775 E.0545
G1 X133.664 Y107.153 E.13727
G1 X133.282 Y108.728 E.05081
G1 X132.498 Y110.334 E.05603
G1 X130.801 Y112.156 E.07807
G1 X129.262 Y113.077 E.05623
G1 X127.587 Y113.632 E.05533
G1 X125.888 Y113.877 E.05382
G1 X124.065 Y113.871 E.05716
G1 X122.345 Y113.608 E.05456
G1 X120.467 Y112.937 E.06253
G1 X118.868 Y111.867 E.06033
G1 X117.583 Y110.429 E.06047
G1 X116.688 Y108.644 E.06261
G1 X116.332 Y107.192 E.04687
G1 X116.291 Y103.25 E.12361
G1 X116.571 Y101.664 E.0505
G1 X117.194 Y100.181 E.05043
G1 X117.347 Y99.962 E.00838
M204 S1000
G1 X117.653 Y100.176 F10800
M204 S800
G1 F600
G1 X118.389 Y99.126 E.0402
G1 X119.535 Y98.081 E.04863
G1 X121.083 Y97.19 E.056
G1 X122.791 Y96.681 E.05588
G1 X124.11 Y96.51 E.0417
G1 X125.326 Y96.485 E.03813
G1 X127.056 Y96.646 E.05448
G1 X129.26 Y97.33 E.07236
G1 X130.564 Y98.138 E.0481
G1 X131.413 Y98.902 E.03581
M73 Q1 S71
G1 X132.122 Y99.769 E.03512
G1 X132.879 Y101.205 E.0509
G1 X133.295 Y102.845 E.05305
G1 X133.287 Y107.13 E.13435
G1 X132.935 Y108.581 E.04681
G1 X132.172 Y110.143 E.05451
G1 X130.584 Y111.847 E.07303
G1 X129.123 Y112.726 E.05346
G1 X127.484 Y113.269 E.05414
G1 X125.866 Y113.5 E.05125
G1 X124.088 Y113.494 E.05575
G1 X122.454 Y113.247 E.05181
G1 X120.657 Y112.611 E.05977
G1 X119.098 Y111.567 E.05883
G1 X117.882 Y110.197 E.05744
G1 X117.036 Y108.495 E.05959
G1 X116.703 Y107.124 E.04424
G1 X116.668 Y103.264 E.12103
G1 X116.939 Y101.752 E.04816
G1 X117.533 Y100.347 E.04783
G1 X117.618 Y100.225 E.00466
M204 S1000
G1 X117.923 Y100.44 F10800
M204 S800
G1 F600
G1 X118.685 Y99.361 E.04142
G1 X119.772 Y98.374 E.04604
G1 X121.251 Y97.528 E.05342
G1 X122.883 Y97.047 E.05335
G1 X124.148 Y96.885 E.03999
G1 X126.047 Y96.897 E.05954
G1 X126.962 Y97.011 E.02891
G1 X129.083 Y97.664 E.06958
G1 X130.325 Y98.43 E.04575
G1 X131.13 Y99.152 E.0339
G1 X131.818 Y99.993 E.03407
G1 X132.535 Y101.36 E.0484
G1 X132.923 Y102.913 E.05019
G1 X132.91 Y107.106 E.13147
G1 X132.587 Y108.434 E.04285
G1 X131.845 Y109.953 E.05301
G1 X130.367 Y111.537 E.06793
G1 X128.947 Y112.391 E.05195
G1 X127.383 Y112.905 E.05162
G1 X125.845 Y113.123 E.0487
G1 X124.111 Y113.118 E.05437
G1 X122.561 Y112.885 E.04915
G1 X120.845 Y112.283 E.05702
G1 X119.363 Y111.299 E.05578
G1 X118.181 Y109.966 E.05586
G1 X117.383 Y108.348 E.05657
G1 X117.075 Y107.058 E.04158
G1 X117.045 Y103.278 E.11852
G1 X117.294 Y101.879 E.04455
G1 X117.872 Y100.513 E.04651
G1 X117.889 Y100.489 E.00092
M204 S1000
G1 X118.211 Y100.68 F10800
M204 S800
G1 F600
G1 X118.98 Y99.596 E.04167
G1 X120.009 Y98.668 E.04345
M73 P2 R71
M73 Q2 S71
G1 X121.418 Y97.867 E.05082
G1 X122.974 Y97.413 E.05082
G1 X124.185 Y97.26 E.03827
G1 X125.302 Y97.239 E.03503
G1 X126.899 Y97.383 E.05028
G1 X128.906 Y97.998 E.06582
G1 X130.086 Y98.723 E.04342
G1 X130.867 Y99.423 E.03288
G1 X131.514 Y100.216 E.03209
G1 X132.19 Y101.513 E.04586
G1 X132.552 Y102.98 E.04738
G1 X132.533 Y107.082 E.12862
G1 X132.239 Y108.286 E.03886
G1 X131.519 Y109.762 E.05149
G1 X130.149 Y111.228 E.06291
G1 X128.809 Y112.04 E.04913
G1 X127.281 Y112.542 E.05043
G1 X125.823 Y112.747 E.04616
G1 X124.135 Y112.741 E.05293
G1 X122.668 Y112.523 E.0465
G1 X121.034 Y111.956 E.05423
G1 X119.593 Y110.998 E.05426
G1 X118.481 Y109.737 E.05272
G1 X117.732 Y108.202 E.05355
G1 X117.447 Y106.993 E.03895
G1 X117.422 Y103.294 E.11598
G1 X117.661 Y101.967 E.04228
G1 X118.188 Y100.735 E.04201
M204 S1000
G1 X118.534 Y100.883 F10800
M204 S800
G1 F600
G1 X118.55 Y100.846 E.00126
G1 X119.248 Y99.862 E.03783
G1 X120.247 Y98.962 E.04216
G1 X121.544 Y98.223 E.0468
G1 X123.064 Y97.78 E.04964
G1 X124.222 Y97.636 E.03659
G1 X125.969 Y97.648 E.05478
G1 X126.806 Y97.749 E.02643
G1 X128.731 Y98.332 E.06306
G1 X129.848 Y99.015 E.04105
G1 X130.585 Y99.673 E.03098
G1 X131.209 Y100.439 E.03098
G1 X131.844 Y101.666 E.04332
G1 X132.18 Y103.046 E.04453
G1 X132.156 Y107.057 E.12576
G1 X131.891 Y108.139 E.03493
G1 X131.192 Y109.571 E.04996
G1 X129.932 Y110.919 E.05785
G1 X128.632 Y111.706 E.04765
G1 X127.181 Y112.178 E.04784
G1 X125.802 Y112.37 E.04365
G1 X124.158 Y112.365 E.05155
G1 X122.774 Y112.16 E.04387
G1 X121.221 Y111.628 E.05147
G1 X119.859 Y110.73 E.05115
G1 X118.781 Y109.507 E.05112
G1 X118.081 Y108.057 E.05048
G1 X117.819 Y106.928 E.03634
G1 X117.799 Y103.309 E.11347
G1 X118.016 Y102.096 E.03864
G1 X118.511 Y100.938 E.03949
M204 S1000
G1 X118.854 Y101.084 F10800
M204 S800
G1 F600
G1 X118.87 Y101.047 E.00126
G1 X119.517 Y100.128 E.03524
G1 X120.484 Y99.255 E.04085
G1 X121.671 Y98.579 E.04283
G1 X123.155 Y98.146 E.04847
G1 X124.257 Y98.011 E.03481
G1 X125.279 Y97.992 E.03205
G1 X126.714 Y98.115 E.04516
G1 X128.556 Y98.667 E.06029
G1 X129.61 Y99.308 E.03868
G1 X130.322 Y99.944 E.02993
G1 X130.904 Y100.661 E.02896
G1 X131.498 Y101.818 E.04078
G1 X131.808 Y103.111 E.04169
G1 X131.779 Y107.032 E.12294
G1 X131.544 Y107.992 E.03099
G1 X130.866 Y109.38 E.04843
G1 X129.715 Y110.61 E.05282
G1 X128.456 Y111.372 E.04614
G1 X127.081 Y111.814 E.04528
G1 X125.78 Y111.994 E.04118
G1 X124.18 Y111.988 E.05017
G1 X122.878 Y111.798 E.04126
G1 X121.408 Y111.299 E.04867
G1 X120.088 Y110.429 E.04957
G1 X119.082 Y109.279 E.04791
G1 X118.43 Y107.914 E.04743
G1 X118.191 Y106.865 E.03373
G1 X118.177 Y103.324 E.11103
G1 X118.372 Y102.223 E.03506
G1 X118.831 Y101.139 E.03691
M204 S1000
G1 X119.175 Y101.284 F10800
M204 S800
G1 F600
G1 X119.191 Y101.245 E.00132
G1 X119.786 Y100.393 E.03258
G1 X120.722 Y99.549 E.03952
G1 X121.798 Y98.934 E.03886
G1 X123.246 Y98.512 E.04729
G1 X124.293 Y98.387 E.03306
G1 X125.895 Y98.398 E.05023
G1 X126.654 Y98.488 E.02396
G1 X128.382 Y99.002 E.05653
G1 X129.373 Y99.602 E.03632
G1 X130.039 Y100.194 E.02794
G1 X130.598 Y100.883 E.02782
G1 X131.152 Y101.968 E.0382
G1 X131.435 Y103.175 E.03887
G1 X131.402 Y107.007 E.12015
G1 X131.196 Y107.844 E.02703
G1 X130.539 Y109.189 E.04693
G1 X129.496 Y110.301 E.0478
G1 X128.319 Y111.02 E.04324
G1 X126.982 Y111.45 E.04404
G1 X125.758 Y111.617 E.03873
G1 X124.203 Y111.612 E.04876
G1 X122.981 Y111.434 E.03872
G1 X121.593 Y110.97 E.04589
G1 X120.355 Y110.162 E.04635
G1 X119.384 Y109.051 E.04626
G1 X118.78 Y107.773 E.04432
G1 X118.564 Y106.804 E.03113
G1 X118.554 Y103.34 E.10861
G1 X118.728 Y102.349 E.03155
G1 X119.152 Y101.339 E.03435
M204 S1000
G1 X119.497 Y101.482 F10800
M204 S800
G1 F600
G1 X119.513 Y101.443 E.00132
G1 X120.055 Y100.658 E.02991
G1 X120.959 Y99.842 E.03818
G1 X121.925 Y99.29 E.03488
G1 X123.336 Y98.879 E.04608
G1 X125.257 Y98.746 E.06038
G1 X126.564 Y98.854 E.04112
G1 X128.208 Y99.338 E.05373
G1 X129.137 Y99.896 E.03398
G1 X129.756 Y100.444 E.02592
G1 X130.293 Y101.104 E.02668
G1 X130.805 Y102.117 E.03559
G1 X131.063 Y103.238 E.03607
G1 X131.026 Y106.981 E.11736
G1 X130.849 Y107.697 E.02313
G1 X130.213 Y108.998 E.04541
G1 X129.277 Y109.993 E.04283
G1 X128.181 Y110.668 E.04036
G1 X126.882 Y111.086 E.04279
G1 X125.737 Y111.24 E.03622
G1 X124.226 Y111.235 E.04738
G1 X123.083 Y111.071 E.0362
G1 X121.777 Y110.64 E.04312
G1 X120.621 Y109.893 E.04315
G1 X119.686 Y108.823 E.04455
G1 X119.131 Y107.633 E.04117
G1 X118.936 Y106.743 E.02857
G1 X118.931 Y103.356 E.1062
G1 X119.084 Y102.474 E.02807
